Adwaita++/actions/symbolic/view-paged-symbolic.svg

<svg height="16" width="16" xmlns="http://www.w3.org/2000/svg">
  <g fill="#474747">
    <path d="m1 0v13h12v-13zm2 2h8v9h-8z"/>
    <path d="m14 3v11h-10v2h12v-13z"/>
    <path d="m8.625 4h-3.25a.374.374 0 0 0 -.375.375v1.25c0 .208.167.375.375.375h3.25a.374.374 0 0 0 .375-.375v-1.25a.374.374 0 0 0 -.375-.375zm0 3h-3.25a.374.374 0 0 0 -.375.375v1.25c0 .208.167.375.375.375h3.25a.374.374 0 0 0 .375-.375v-1.25a.374.374 0 0 0 -.375-.375z" opacity=".35"/>
  </g>
</svg>

<svg xmlns="http://www.w3.org/2000/svg" width="16" height="16">
    <g color="#bebebe" fill="#474747">
        <path d="M1 0v13h12V0zm2 2h8v9H3z" style="line-height:normal;font-variant-ligatures:normal;font-variant-position:normal;font-variant-caps:normal;font-variant-numeric:normal;font-variant-alternates:normal;font-feature-settings:normal;text-indent:0;text-align:start;text-decoration-line:none;text-decoration-style:solid;text-decoration-color:#000;text-transform:none;text-orientation:mixed;shape-padding:0;isolation:auto;mix-blend-mode:normal;marker:none" font-weight="400" font-family="sans-serif" white-space="normal" overflow="visible"/>
        <path d="M14 3v11H4v2h12V3z" style="line-height:normal;-inkscape-font-specification:Sans;text-indent:0;text-align:start;text-decoration-line:none;text-transform:none;marker:none" font-weight="400" font-family="Sans" overflow="visible"/>
        <path d="M8.625 4h-3.25A.374.374 0 0 0 5 4.375v1.25c0 .208.167.375.375.375h3.25A.374.374 0 0 0 9 5.625v-1.25A.374.374 0 0 0 8.625 4zM8.625 7h-3.25A.374.374 0 0 0 5 7.375v1.25c0 .208.167.375.375.375h3.25A.374.374 0 0 0 9 8.625v-1.25A.374.374 0 0 0 8.625 7z" style="marker:none" overflow="visible" opacity=".35"/>
    </g>
</svg>
